X:1
T:Title
%%score { 1 | 2 }
L:1/8
M:4/4
K:F
V:1 treble nm="Grand Piano"
V:2 bass 
V:1
 z4 z2[Q:1/4=96] F2 | A>A A>[GB] [Ac]>[Ac] [Ac]>[FA] | [DG]>[DF] [DF]>D C3 F | %3
[M:7/8] E>EE>[DF] [EG]3 |[M:1/8] E |[M:4/4] F>F F>G A3 F | A>A A>[GB] [Ac]>[Ac] [Ac]>[FA] | %7
[M:3/4] [DG]>[DF] [DF]>D C2 |[M:1/4] C>C |[M:4/4] D [DFB]3 [CFA]2 [B,EG]2 |[M:3/4] [A,CF]6 | %11
[M:1/4] [A,F]2 |[M:4/4] [EG]>[EG] [EG]>[FA] [GB]3 [EG] |[M:7/8] A>AA>[GB] [Ac]3 |[M:1/8] A | %15
[M:4/4] G>G G>A =B>A G>d | [Ec]2 [Ed]2 [Fc]2 [EB]2 |[M:3/4] A>A c>c F2 |[M:1/4] G>A | %19
[M:4/4] [DB]>[DB] [Fd]>[Fd] [DG]2 [DB]>[Dd] | c>c c>c [Ec]2 E2 |[M:3/4] F6 |] %22
V:2
 z4 z2 [F,A,]2 | [F,CF]>[F,CF] [F,CF]>[F,C] [F,F]>[F,F] [F,F]>[F,C] | %2
 [B,,B,]>[B,,B,] [B,,B,]>[B,,F,B,] [F,A,]3 [F,A,C] |[M:7/8] [C,G,C]>[C,G,C][C,G,C]>[C,A,] [C,B,]3 | %4
[M:1/8] [C,G,C] |[M:4/4] [F,A,C]>[F,A,C] [F,A,C]>[F,B,E] [F,CF]3 [F,A,] | %6
 [F,CF]>[F,CF] [F,CF]>[F,C] [F,F]>[F,F] [F,F]>[F,C] | %7
[M:3/4] [B,,B,]>[B,,B,] [B,,B,]>[B,,F,B,] [F,A,]2 |[M:1/4] [F,A,]>[F,A,] | %9
[M:4/4] [B,,B,] B,,3 C,2 C,2 |[M:3/4] F,6 |[M:1/4] F,2 | %12
[M:4/4] [C,C]>[C,C] [C,C]>[C,C] [C,C]3 [C,C] |[M:7/8] [F,CF]>[F,CF][F,CF]>[F,C][K:treble] [F,F]3 | %14
[M:1/8] [F,CF] |[M:4/4] [G,=B,F]>[G,B,F] [G,B,F]>[G,CF] [G,DF]>[G,CF] [G,B,F]>[G,B,F] | %16
 [C,G,]2 [C,B,]2 [C,A,]2 [C,C]2 |[M:3/4] [F,CF]>[F,CF] [F,A,F]>[F,A,F] [F,A,C]2 | %18
[M:1/4] [F,B,E]>[F,C_E] |[M:4/4] [B,,B,]>[B,,B,] [B,,B,]>[B,,B,] [B,,B,]2 [B,,B,]>[B,,F,] | %20
 [F,A,F]>[F,A,F] [F,A,F]>[F,A,F] [C,G,]2 [C,B,C]2 |[M:3/4] [F,A,C]6 |] %22

